;Generated with Cura_SteamEngine 15.01
; Default start code
G28 ; Home extruder
G1 Z15 F2000
M107 ; Turn off fan
G90 ; Absolute positioning
M82 ; Extruder in absolute mode
M190 S45
; Activate all used extruder
M104 T0 S210
G92 E0 ; Reset extruder position
; Wait for all used extruders to reach temperature
M109 T0 S210
;Layer count: 248
;LAYER:0
M107
G0 F5880 X16.098 Y16.098 Z0.300
;TYPE:SKIRT
G1 F1260 X-16.098 Y16.098 E1.60225
G1 X-16.098 Y-16.098 E3.20450
G1 X16.098 Y-16.098 E4.80675
G1 X16.098 Y16.098 E6.40900
G0 F5880 X15.699 Y15.699
G1 F1260 X-15.699 Y15.699 E7.97153
G1 X-15.699 Y-15.699 E9.53407
G1 X15.699 Y-15.699 E11.09661
G1 X15.699 Y15.699 E12.65914
G1 F2400 E8.65914
G0 F5880 X11.503 Y11.503
;TYPE:WALL-INNER
G1 F2400 E12.65914
G1 F1260 X-11.503 Y11.503 E13.80405
G1 X-11.503 Y-11.503 E14.94895
G1 X11.503 Y-11.503 E16.09386
G1 X11.503 Y11.503 E17.23876
G0 F5880 X11.902 Y11.902
G1 F1260 X-11.902 Y11.902 E18.42338
G1 X-11.902 Y-11.902 E19.60800
G1 X11.902 Y-11.902 E20.79261
G1 X11.902 Y11.902 E21.97723
G0 F5880 X12.301 Y12.301
;TYPE:WALL-OUTER
G1 F1260 X-12.301 Y12.301 E23.20156
G1 X-12.301 Y-12.301 E24.42589
G1 X12.301 Y-12.301 E25.65022
G1 X12.301 Y12.301 E26.87455
G0 F5880 X11.542 Y11.261
;TYPE:SKIN
G1 F1260 X-11.261 Y-11.542 E28.47940
G0 F5880 X-11.542 Y-11.259
G1 F1260 X11.259 Y11.542 E30.08412
G0 F5880 X10.695 Y11.542
G1 F1260 X-11.542 Y-10.695 E31.64913
G0 F5880 X-11.542 Y-10.131
G1 F1260 X10.131 Y11.542 E33.17446
G0 F5880 X9.567 Y11.542
G1 F1260 X-11.542 Y-9.567 E34.66009
G0 F5880 X-11.542 Y-9.002
G1 F1260 X9.002 Y11.542 E36.10596
G0 F5880 X8.438 Y11.542
G1 F1260 X-11.542 Y-8.438 E37.51213
G0 F5880 X-11.542 Y-7.874
G1 F1260 X7.874 Y11.542 E38.87861
G0 F5880 X7.310 Y11.542
G1 F1260 X-11.542 Y-7.310 E40.20539
G0 F5880 X-11.542 Y-6.745
G1 F1260 X6.745 Y11.542 E41.49241
G0 F5880 X6.181 Y11.542
G1 F1260 X-11.542 Y-6.181 E42.73974
G0 F5880 X-11.542 Y-5.617
G1 F1260 X5.617 Y11.542 E43.94737
G0 F5880 X5.052 Y11.542
G1 F1260 X-11.542 Y-5.052 E45.11524
G0 F5880 X-11.542 Y-4.488
G1 F1260 X4.488 Y11.542 E46.24342
G0 F5880 X3.924 Y11.542
G1 F1260 X-11.542 Y-3.924 E47.33190
G0 F5880 X-11.542 Y-3.360
G1 F1260 X3.360 Y11.542 E48.38069
G0 F5880 X2.795 Y11.542
G1 F1260 X-11.542 Y-2.795 E49.38971
G0 F5880 X-11.542 Y-2.231
G1 F1260 X2.231 Y11.542 E50.35904
G0 F5880 X1.667 Y11.542
G1 F1260 X-11.542 Y-1.667 E51.28868
G0 F5880 X-11.542 Y-1.103
G1 F1260 X1.103 Y11.542 E52.17862
G0 F5880 X0.538 Y11.542
G1 F1260 X-11.542 Y-0.538 E53.02880
G0 F5880 X-11.542 Y0.025
G1 F1260 X-0.025 Y11.542 E53.83936
G0 F5880 X-0.589 Y11.542
G1 F1260 X-11.542 Y0.589 E54.61022
G0 F5880 X-11.542 Y1.153
G1 F1260 X-1.153 Y11.542 E55.34138
G0 F5880 X-1.718 Y11.542
G1 F1260 X-11.542 Y1.718 E56.03279
G0 F5880 X-11.542 Y2.282
G1 F1260 X-2.282 Y11.542 E56.68450
G0 F5880 X-2.846 Y11.542
G1 F1260 X-11.542 Y2.846 E57.29651
G0 F5880 X-11.542 Y3.411
G1 F1260 X-3.411 Y11.542 E57.86877
G0 F5880 X-3.975 Y11.542
G1 F1260 X-11.542 Y3.975 E58.40132
G0 F5880 X-11.542 Y4.539
G1 F1260 X-4.539 Y11.542 E58.89419
G0 F5880 X-5.103 Y11.542
G1 F1260 X-11.542 Y5.103 E59.34736
G0 F5880 X-11.542 Y5.668
G1 F1260 X-5.668 Y11.542 E59.76076
G0 F5880 X-6.232 Y11.542
G1 F1260 X-11.542 Y6.232 E60.13448
G0 F5880 X-11.542 Y6.796
G1 F1260 X-6.796 Y11.542 E60.46850
G0 F5880 X-7.360 Y11.542
G1 F1260 X-11.542 Y7.360 E60.76282
G0 F5880 X-11.542 Y7.925
G1 F1260 X-7.925 Y11.542 E61.01738
G0 F5880 X-8.489 Y11.542
G1 F1260 X-11.542 Y8.489 E61.23225
G0 F5880 X-11.542 Y9.053
G1 F1260 X-9.053 Y11.542 E61.40742
G0 F5880 X-9.618 Y11.542
G1 F1260 X-11.542 Y9.618 E61.54283
G0 F5880 X-11.542 Y10.182
G1 F1260 X-10.182 Y11.542 E61.63855
G0 F5880 X-10.746 Y11.542
G1 F1260 X-11.542 Y10.746 E61.69457
G0 F5880 X-11.542 Y11.310
G1 F1260 X-11.310 Y11.542 E61.71090
G0 F5880 X11.542 Y10.697
G1 F1260 X-10.697 Y-11.542 E63.27606
G0 F5880 X-10.132 Y-11.542
G1 F1260 X11.542 Y10.132 E64.80145
G0 F5880 X11.542 Y9.568
G1 F1260 X-9.568 Y-11.542 E66.28715
G0 F5880 X-9.004 Y-11.542
G1 F1260 X11.542 Y9.004 E67.73316
G0 F5880 X11.542 Y8.440
G1 F1260 X-8.440 Y-11.542 E69.13947
G0 F5880 X-7.875 Y-11.542
G1 F1260 X11.542 Y7.875 E70.50602
G0 F5880 X11.542 Y7.311
G1 F1260 X-7.311 Y-11.542 E71.83288
G0 F5880 X-6.747 Y-11.542
G1 F1260 X11.542 Y6.747 E73.12004
G0 F5880 X11.542 Y6.182
G1 F1260 X-6.182 Y-11.542 E74.36744
G0 F5880 X-5.618 Y-11.542
G1 F1260 X11.542 Y5.618 E75.57514
G0 F5880 X11.542 Y5.054
G1 F1260 X-5.054 Y-11.542 E76.74315
G0 F5880 X-4.490 Y-11.542
G1 F1260 X11.542 Y4.490 E77.87147
G0 F5880 X11.542 Y3.925
G1 F1260 X-3.925 Y-11.542 E78.96002
G0 F5880 X-3.361 Y-11.542
G1 F1260 X11.542 Y3.361 E80.00888
G0 F5880 X11.542 Y2.797
G1 F1260 X-2.797 Y-11.542 E81.01804
G0 F5880 X-2.233 Y-11.542
G1 F1260 X11.542 Y2.233 E81.98751
G0 F5880 X11.542 Y1.668
G1 F1260 X-1.668 Y-11.542 E82.91722
G0 F5880 X-1.104 Y-11.542
G1 F1260 X11.542 Y1.104 E83.80723
G0 F5880 X11.542 Y0.540
G1 F1260 X-0.540 Y-11.542 E84.65755
G0 F5880 X0.024 Y-11.542
G1 F1260 X11.542 Y-0.024 E85.46818
G0 F5880 X11.542 Y-0.588
G1 F1260 X0.588 Y-11.542 E86.23911
G0 F5880 X1.152 Y-11.542
G1 F1260 X11.542 Y-1.152 E86.97035
G0 F5880 X11.542 Y-1.716
G1 F1260 X1.716 Y-11.542 E87.66189
G0 F5880 X2.281 Y-11.542
G1 F1260 X11.542 Y-2.281 E88.31367
G0 F5880 X11.542 Y-2.845
G1 F1260 X2.845 Y-11.542 E88.92576
G0 F5880 X3.409 Y-11.542
G1 F1260 X11.542 Y-3.409 E89.49815
G0 F5880 X11.542 Y-3.973
G1 F1260 X3.973 Y-11.542 E90.03085
G0 F5880 X4.538 Y-11.542
G1 F1260 X11.542 Y-4.538 E90.52378
G0 F5880 X11.542 Y-5.102
G1 F1260 X5.102 Y-11.542 E90.97702
G0 F5880 X5.666 Y-11.542
G1 F1260 X11.542 Y-5.666 E91.39057
G0 F5880 X11.542 Y-6.231
G1 F1260 X6.231 Y-11.542 E91.76435
G0 F5880 X6.795 Y-11.542
G1 F1260 X11.542 Y-6.795 E92.09844
G0 F5880 X11.542 Y-7.359
G1 F1260 X7.359 Y-11.542 E92.39284
G0 F5880 X7.923 Y-11.542
G1 F1260 X11.542 Y-7.923 E92.64754
G0 F5880 X11.542 Y-8.488
G1 F1260 X8.488 Y-11.542 E92.86248
G0 F5880 X9.052 Y-11.542
G1 F1260 X11.542 Y-9.052 E93.03772
G0 F5880 X11.542 Y-9.616
G1 F1260 X9.616 Y-11.542 E93.17327
G0 F5880 X10.180 Y-11.542
G1 F1260 X11.542 Y-10.180 E93.26913
G0 F5880 X11.542 Y-10.745
G1 F1260 X10.745 Y-11.542 E93.32522
G0 F5880 X11.309 Y-11.542
G1 F1260 X11.542 Y-11.309 E93.34162
;LAYER:1
M106 S56
G0 F5880 X11.503 Y-11.503 Z0.400
;TYPE:WALL-INNER
G1 F1740 X11.503 Y11.503 E93.72325
G1 X-11.503 Y11.503 E94.10489
G1 X-11.503 Y-11.503 E94.48652
G1 X11.503 Y-11.503 E94.86816
G0 F5880 X11.902 Y-11.902
G1 F1740 X11.902 Y11.902 E95.26303
G1 X-11.902 Y11.902 E95.65790
G1 X-11.902 Y-11.902 E96.05277
G1 X11.902 Y-11.902 E96.44765
G0 F5880 X12.301 Y-12.301
;TYPE:WALL-OUTER
G1 F1500 X12.301 Y12.301 E96.85576
G1 X-12.301 Y12.301 E97.26387
G1 X-12.301 Y-12.301 E97.67198
G1 X12.301 Y-12.301 E98.08009
G0 F5880 X11.261 Y-11.542
;TYPE:SKIN
G1 F1500 X-11.542 Y11.261 E98.61504
G0 F5880 X-11.259 Y11.542
G1 F1500 X11.542 Y-11.259 E99.14994
G0 F5880 X11.542 Y-10.695
G1 F1500 X-10.695 Y11.542 E99.67161
G0 F5880 X-10.131 Y11.542
G1 F1500 X11.542 Y-10.131 E100.18006
G0 F5880 X11.542 Y-9.567
G1 F1500 X-9.567 Y11.542 E100.67527
G0 F5880 X-9.002 Y11.542
G1 F1500 X11.542 Y-9.002 E101.15722
G0 F5880 X11.542 Y-8.438
G1 F1500 X-8.438 Y11.542 E101.62595
G0 F5880 X-7.874 Y11.542
G1 F1500 X11.542 Y-7.874 E102.08144
G0 F5880 X11.542 Y-7.310
G1 F1500 X-7.310 Y11.542 E102.52370
G0 F5880 X-6.745 Y11.542
G1 F1500 X11.542 Y-6.745 E102.95271
G0 F5880 X11.542 Y-6.181
G1 F1500 X-6.181 Y11.542 E103.36848
G0 F5880 X-5.617 Y11.542
G1 F1500 X11.542 Y-5.617 E103.77103
G0 F5880 X11.542 Y-5.052
G1 F1500 X-5.052 Y11.542 E104.16032
G0 F5880 X-4.488 Y11.542
G1 F1500 X11.542 Y-4.488 E104.53638
G0 F5880 X11.542 Y-3.924
G1 F1500 X-3.924 Y11.542 E104.89920
G0 F5880 X-3.360 Y11.542
G1 F1500 X11.542 Y-3.360 E105.24880
G0 F5880 X11.542 Y-2.795
G1 F1500 X-2.795 Y11.542 E105.58514
G0 F5880 X-2.231 Y11.542
G1 F1500 X11.542 Y-2.231 E105.90825
G0 F5880 X11.542 Y-1.667
G1 F1500 X-1.667 Y11.542 E106.21813
G0 F5880 X-1.103 Y11.542
G1 F1500 X11.542 Y-1.103 E106.51478
G0 F5880 X11.542 Y-0.538
G1 F1500 X-0.538 Y11.542 E106.79817
G0 F5880 X0.025 Y11.542
G1 F1500 X11.542 Y0.025 E107.06836
G0 F5880 X11.542 Y0.589
G1 F1500 X0.589 Y11.542 E107.32531
G0 F5880 X1.153 Y11.542
G1 F1500 X11.542 Y1.153 E107.56903
G0 F5880 X11.542 Y1.718
G1 F1500 X1.718 Y11.542 E107.79950
G0 F5880 X2.282 Y11.542
G1 F1500 X11.542 Y2.282 E108.01674
G0 F5880 X11.542 Y2.846
G1 F1500 X2.846 Y11.542 E108.22074
G0 F5880 X3.411 Y11.542
G1 F1500 X11.542 Y3.411 E108.41149
G0 F5880 X11.542 Y3.975
G1 F1500 X3.975 Y11.542 E108.58901
G0 F5880 X4.539 Y11.542
G1 F1500 X11.542 Y4.539 E108.75330
G0 F5880 X11.542 Y5.103
G1 F1500 X5.103 Y11.542 E108.90436
G0 F5880 X5.668 Y11.542
G1 F1500 X11.542 Y5.668 E109.04216
G0 F5880 X11.542 Y6.232
G1 F1500 X6.232 Y11.542 E109.16673
G0 F5880 X6.796 Y11.542
G1 F1500 X11.542 Y6.796 E109.27807
G0 F5880 X11.542 Y7.360
G1 F1500 X7.360 Y11.542 E109.37618
G0 F5880 X7.925 Y11.542
G1 F1500 X11.542 Y7.925 E109.46103
G0 F5880 X11.542 Y8.489
G1 F1500 X8.489 Y11.542 E109.53265
G0 F5880 X9.053 Y11.542
G1 F1500 X11.542 Y9.053 E109.59104
G0 F5880 X11.542 Y9.618
G1 F1500 X9.618 Y11.542 E109.63618
G0 F5880 X10.182 Y11.542
G1 F1500 X11.542 Y10.182 E109.66809
G0 F5880 X11.542 Y10.746
G1 F1500 X10.746 Y11.542 E109.68676
G0 F5880 X11.310 Y11.542
G1 F1500 X11.542 Y11.310 E109.69220
G0 F5880 X10.697 Y-11.542
G1 F1500 X-11.542 Y10.697 E110.21392
G0 F5880 X-11.542 Y10.132
G1 F1500 X10.132 Y-11.542 E110.72239
G0 F5880 X9.568 Y-11.542
G1 F1500 X-11.542 Y9.568 E111.21762
G0 F5880 X-11.542 Y9.004
G1 F1500 X9.004 Y-11.542 E111.69962
G0 F5880 X8.440 Y-11.542
G1 F1500 X-11.542 Y8.440 E112.16839
G0 F5880 X-11.542 Y7.875
G1 F1500 X7.875 Y-11.542 E112.62391
G0 F5880 X7.311 Y-11.542
G1 F1500 X-11.542 Y7.311 E113.06620
G0 F5880 X-11.542 Y6.747
G1 F1500 X6.747 Y-11.542 E113.49525
G0 F5880 X6.182 Y-11.542
G1 F1500 X-11.542 Y6.182 E113.91105
G0 F5880 X-11.542 Y5.618
G1 F1500 X5.618 Y-11.542 E114.31362
G0 F5880 X5.054 Y-11.542
G1 F1500 X-11.542 Y5.054 E114.70295
G0 F5880 X-11.542 Y4.490
G1 F1500 X4.490 Y-11.542 E115.07906
G0 F5880 X3.925 Y-11.542
G1 F1500 X-11.542 Y3.925 E115.44191
G0 F5880 X-11.542 Y3.361
G1 F1500 X3.361 Y-11.542 E115.79153
G0 F5880 X2.797 Y-11.542
G1 F1500 X-11.542 Y2.797 E116.12792
G0 F5880 X-11.542 Y2.233
G1 F1500 X2.233 Y-11.542 E116.45107
G0 F5880 X1.668 Y-11.542
G1 F1500 X-11.542 Y1.668 E116.76098
G0 F5880 X-11.542 Y1.104
G1 F1500 X1.104 Y-11.542 E117.05765
G0 F5880 X0.540 Y-11.542
G1 F1500 X-11.542 Y0.540 E117.34109
G0 F5880 X-11.542 Y-0.024
G1 F1500 X-0.024 Y-11.542 E117.61130
G0 F5880 X-0.588 Y-11.542
G1 F1500 X-11.542 Y-0.588 E117.86827
G0 F5880 X-11.542 Y-1.152
G1 F1500 X-1.152 Y-11.542 E118.11202
G0 F5880 X-1.716 Y-11.542
G1 F1500 X-11.542 Y-1.716 E118.34253
G0 F5880 X-11.542 Y-2.281
G1 F1500 X-2.281 Y-11.542 E118.55979
G0 F5880 X-2.845 Y-11.542
G1 F1500 X-11.542 Y-2.845 E118.76382
G0 F5880 X-11.542 Y-3.409
G1 F1500 X-3.409 Y-11.542 E118.95462
G0 F5880 X-3.973 Y-11.542
G1 F1500 X-11.542 Y-3.973 E119.13219
G0 F5880 X-11.542 Y-4.538
G1 F1500 X-4.538 Y-11.542 E119.29650
G0 F5880 X-5.102 Y-11.542
G1 F1500 X-11.542 Y-5.102 E119.44758
G0 F5880 X-11.542 Y-5.666
G1 F1500 X-5.666 Y-11.542 E119.58543
G0 F5880 X-6.231 Y-11.542
G1 F1500 X-11.542 Y-6.231 E119.71002
G0 F5880 X-11.542 Y-6.795
G1 F1500 X-6.795 Y-11.542 E119.82138
G0 F5880 X-7.359 Y-11.542
G1 F1500 X-11.542 Y-7.359 E119.91952
G0 F5880 X-11.542 Y-7.923
G1 F1500 X-7.923 Y-11.542 E120.00442
G0 F5880 X-8.488 Y-11.542
G1 F1500 X-11.542 Y-8.488 E120.07606
G0 F5880 X-11.542 Y-9.052
G1 F1500 X-9.052 Y-11.542 E120.13448
G0 F5880 X-9.616 Y-11.542
G1 F1500 X-11.542 Y-9.616 E120.17966
G0 F5880 X-11.542 Y-10.180
G1 F1500 X-10.180 Y-11.542 E120.21161
G0 F5880 X-10.745 Y-11.542
G1 F1500 X-11.542 Y-10.745 E120.23031
G0 F5880 X-11.542 Y-11.309
G1 F1500 X-11.309 Y-11.542 E120.23578
;LAYER:2
M106 S114
G0 F5880 X-11.503 Y-11.503 Z0.500
;TYPE:WALL-INNER
G1 F2340 X11.503 Y-11.503 E120.61741
G1 X11.503 Y11.503 E120.99905
G1 X-11.503 Y11.503 E121.38068
G1 X-11.503 Y-11.503 E121.76232
G0 F5880 X-11.902 Y-11.902
G1 F2340 X11.902 Y-11.902 E122.15719
G1 X11.902 Y11.902 E122.55206
G1 X-11.902 Y11.902 E122.94693
G1 X-11.902 Y-11.902 E123.34181
G0 F5880 X-12.301 Y-12.301
;TYPE:WALL-OUTER
G1 F1860 X12.301 Y-12.301 E123.74992
G1 X12.301 Y12.301 E124.15803
G1 X-12.301 Y12.301 E124.56614
G1 X-12.301 Y-12.301 E124.97425
G0 F5880 X-11.261 Y-11.542
;TYPE:SKIN
G1 F1860 X11.542 Y11.261 E125.50920
G0 F5880 X11.259 Y11.542
G1 F1860 X-11.542 Y-11.259 E126.04410
G0 F5880 X-11.542 Y-10.695
G1 F1860 X10.695 Y11.542 E126.56577
G0 F5880 X10.131 Y11.542
G1 F1860 X-11.542 Y-10.131 E127.07421
G0 F5880 X-11.542 Y-9.567
G1 F1860 X9.567 Y11.542 E127.56942
G0 F5880 X9.002 Y11.542
G1 F1860 X-11.542 Y-9.002 E128.05138
G0 F5880 X-11.542 Y-8.438
G1 F1860 X8.438 Y11.542 E128.52010
G0 F5880 X7.874 Y11.542
G1 F1860 X-11.542 Y-7.874 E128.97560
G0 F5880 X-11.542 Y-7.310
G1 F1860 X7.310 Y11.542 E129.41786
G0 F5880 X6.745 Y11.542
G1 F1860 X-11.542 Y-6.745 E129.84687
G0 F5880 X-11.542 Y-6.181
G1 F1860 X6.181 Y11.542 E130.26264
G0 F5880 X5.617 Y11.542
G1 F1860 X-11.542 Y-5.617 E130.66519
G0 F5880 X-11.542 Y-5.052
G1 F1860 X5.052 Y11.542 E131.05448
G0 F5880 X4.488 Y11.542
G1 F1860 X-11.542 Y-4.488 E131.43053
G0 F5880 X-11.542 Y-3.924
G1 F1860 X3.924 Y11.542 E131.79336
G0 F5880 X3.360 Y11.542
G1 F1860 X-11.542 Y-3.360 E132.14296
G0 F5880 X-11.542 Y-2.795
G1 F1860 X2.795 Y11.542 E132.47930
G0 F5880 X2.231 Y11.542
G1 F1860 X-11.542 Y-2.231 E132.80241
G0 F5880 X-11.542 Y-1.667
G1 F1860 X1.667 Y11.542 E133.11229
G0 F5880 X1.103 Y11.542
G1 F1860 X-11.542 Y-1.103 E133.40894
G0 F5880 X-11.542 Y-0.538
G1 F1860 X0.538 Y11.542 E133.69233
G0 F5880 X-0.025 Y11.542
G1 F1860 X-11.542 Y0.025 E133.96251
G0 F5880 X-11.542 Y0.589
G1 F1860 X-0.589 Y11.542 E134.21947
G0 F5880 X-1.153 Y11.542
G1 F1860 X-11.542 Y1.153 E134.46319
G0 F5880 X-11.542 Y1.718
G1 F1860 X-1.718 Y11.542 E134.69366
G0 F5880 X-2.282 Y11.542
G1 F1860 X-11.542 Y2.282 E134.91089
G0 F5880 X-11.542 Y2.846
G1 F1860 X-2.846 Y11.542 E135.11490
G0 F5880 X-3.411 Y11.542
G1 F1860 X-11.542 Y3.411 E135.30565
G0 F5880 X-11.542 Y3.975
G1 F1860 X-3.975 Y11.542 E135.48317
G0 F5880 X-4.539 Y11.542
G1 F1860 X-11.542 Y4.539 E135.64746
G0 F5880 X-11.542 Y5.103
G1 F1860 X-5.103 Y11.542 E135.79851
G0 F5880 X-5.668 Y11.542
G1 F1860 X-11.542 Y5.668 E135.93632
G0 F5880 X-11.542 Y6.232
G1 F1860 X-6.232 Y11.542 E136.06089
G0 F5880 X-6.796 Y11.542
G1 F1860 X-11.542 Y6.796 E136.17223
G0 F5880 X-11.542 Y7.360
G1 F1860 X-7.360 Y11.542 E136.27033
G0 F5880 X-7.925 Y11.542
G1 F1860 X-11.542 Y7.925 E136.35519
G0 F5880 X-11.542 Y8.489
G1 F1860 X-8.489 Y11.542 E136.42681
G0 F5880 X-9.053 Y11.542
G1 F1860 X-11.542 Y9.053 E136.48520
G0 F5880 X-11.542 Y9.618
G1 F1860 X-9.618 Y11.542 E136.53034
G0 F5880 X-10.182 Y11.542
G1 F1860 X-11.542 Y10.182 E136.56224
G0 F5880 X-11.542 Y10.746
G1 F1860 X-10.746 Y11.542 E136.58092
G0 F5880 X-11.310 Y11.542
G1 F1860 X-11.542 Y11.310 E136.58636
G0 F5880 X-10.697 Y-11.542
G1 F1860 X11.542 Y10.697 E137.10808
G0 F5880 X11.542 Y10.132
G1 F1860 X-10.132 Y-11.542 E137.61654
G0 F5880 X-9.568 Y-11.542
G1 F1860 X11.542 Y9.568 E138.11178
G0 F5880 X11.542 Y9.004
G1 F1860 X-9.004 Y-11.542 E138.59378
G0 F5880 X-8.440 Y-11.542
G1 F1860 X11.542 Y8.440 E139.06255
G0 F5880 X11.542 Y7.875
G1 F1860 X-7.875 Y-11.542 E139.51807
G0 F5880 X-7.311 Y-11.542
G1 F1860 X11.542 Y7.311 E139.96035
G0 F5880 X11.542 Y6.747
G1 F1860 X-6.747 Y-11.542 E140.38941
G0 F5880 X-6.182 Y-11.542
G1 F1860 X11.542 Y6.182 E140.80521
G0 F5880 X11.542 Y5.618
G1 F1860 X-5.618 Y-11.542 E141.20777
G0 F5880 X-5.054 Y-11.542
